X: 105
T: Eavesdropper
M: 6/8
L: 1/8
R: Jig
K: G
D|GBB BAG|Bdd dBG|cee dBG|BAA A2B|
GBB BAG|Bdd dBG|cee dBA|BGG G2 :|
d|gfg afd|efg dBG|cee dBG|BAA Adf|
gab afd|efg dBG|cee dBA|BGG G2 :|
